Hatter-kde-dark/actions/24/distribute-vertical-margin.svg

<?xml version="1.0" encoding="UTF-8"?>
<svg viewBox="0 0 24 24" xmlns="http://www.w3.org/2000/svg">
 <defs id="defs3051">
  <style id="current-color-scheme" type="text/css">.ColorScheme-Text {
        color:#dedede;
      }</style>
 </defs>
 <path class="ColorScheme-Text" d="m4 4v1 14 1h1 14 1v-16h-1-15zm1 1h14v14h-14v-14zm3 1v5h8v-5h-8zm1 1h6v3h-6v-3zm-1 6v5h8v-5h-8zm1 1h6v3h-6v-3z" fill="currentColor"/>
</svg>

<svg xmlns="http://www.w3.org/2000/svg" viewBox="0 0 24 24">
  <defs id="defs3051">
    <style type="text/css" id="current-color-scheme">
      .ColorScheme-Text {
        color:#dedede;
      }
      </style>
  </defs>
 <path style="fill:currentColor;fill-opacity:1;stroke:none" 
     d="M 4 4 L 4 5 L 4 19 L 4 20 L 5 20 L 19 20 L 20 20 L 20 4 L 19 4 L 4 4 z M 5 5 L 19 5 L 19 19 L 5 19 L 5 5 z M 8 6 L 8 11 L 16 11 L 16 6 L 8 6 z M 9 7 L 15 7 L 15 10 L 9 10 L 9 7 z M 8 13 L 8 18 L 16 18 L 16 13 L 8 13 z M 9 14 L 15 14 L 15 17 L 9 17 L 9 14 z "
     class="ColorScheme-Text"
     />
</svg>
